lib/functional/media/shuffle.svg

<svg xmlns="http://www.w3.org/2000/svg" fill="none" stroke="currentColor" aria-hidden="true" viewBox="0 0 32 32"><g id="Icon-Shuffle"><g clip-path="url(#clip0_12_3017)"><g id="size=md (32px)"><path id="Vector" stroke-linecap="round" stroke-linejoin="round" stroke-width="2" d="M4 9H6.8875C8.15922 9.00156 9.41224 9.30627 10.5427 9.88887C11.6731 10.4715 12.6483 11.3152 13.3875 12.35L18.6125 19.65C19.3517 20.6848 20.3269 21.5285 21.4573 22.1111C22.5878 22.6937 23.8408 22.9984 25.1125 23H29"/><path id="Vector_2" stroke-linecap="round" stroke-linejoin="round" stroke-width="2" d="M26 6L29 9L26 12"/><path id="Vector_3" stroke-linecap="round" stroke-linejoin="round" stroke-width="2" d="M26 20L29 23L26 26"/><path id="Vector_4" stroke-linecap="round" stroke-linejoin="round" stroke-width="2" d="M18.4629 12.5625L18.6129 12.35C19.3521 11.3152 20.3273 10.4715 21.4577 9.88887C22.5882 9.30627 23.8412 9.00156 25.1129 9H29.0004"/><path id="Vector_5" stroke-linecap="round" stroke-linejoin="round" stroke-width="2" d="M4 23H6.8875C8.15922 22.9984 9.41224 22.6937 10.5427 22.1111C11.6731 21.5285 12.6483 20.6848 13.3875 19.65L13.5375 19.4375"/></g></g></g><defs><clipPath id="clip0_12_3017"><rect width="32" height="32" fill="white" rx="5"/></clipPath></defs></svg>

<svg xmlns="http://www.w3.org/2000/svg" fill="none" stroke="currentColor" aria-hidden="true" viewBox="0 0 32 32"><g stroke="#101828" stroke-linecap="round" stroke-linejoin="round" stroke-width="2" clip-path="url(#a)"><path d="M4 9h2.888a8 8 0 0 1 6.5 3.35l5.225 7.3a8 8 0 0 0 6.5 3.35H29M26 6l3 3-3 3"/><path d="m26 20 3 3-3 3m-7.537-13.437.15-.213a8 8 0 0 1 6.5-3.35H29M4 23h2.888a8 8 0 0 0 6.5-3.35l.15-.212"/></g><defs><clipPath id="a"><rect width="32" height="32" fill="#fff" rx="5"/></clipPath></defs></svg>
